Assets/symbols/upper_menu/account/my_profile.svg

<svg width="8px" height="8px" viewBox="0 0 8 8" xmlns="http://www.w3.org/2000/svg">
  <path d="M4 0c-1.1 0-2 1.12-2 2.5s.9 2.5 2 2.5 2-1.12 2-2.5-.9-2.5-2-2.5zm-2.09 5c-1.06.05-1.91.92-1.91 2v1h8v-1c0-1.08-.84-1.95-1.91-2-.54.61-1.28 1-2.09 1-.81 0-1.55-.39-2.09-1z" />
</svg>

<svg width="8px" height="8px" viewBox="0 0 8 8" xmlns="http://www.w3.org/2000/svg">
  <path d="M 4 0 C 2.9 0 2 1.12 2 2.5 S 2.9 5 4 5 S 6 3.88 6 2.5 S 5.1 0 4 0 Z M 1.91 5 C 0.85 5.05 0 5.92 0 7 V 8 H 8 V 7 C 8 5.92 7.16 5.05 6.09 5 C 5.55 5.61 4.81 6 4 6 C 3.19 6 2.45 5.61 1.91 5 Z" />
</svg>
